src/assets/icon/facebook.svg

<svg version="1.2" xmlns="http://www.w3.org/2000/svg" viewBox="0 0 22 22" width="22" height="22">
	<title>facebook-svg</title>
	<style>
		.s0 { fill: none;stroke: #17191c;stroke-linecap: round;stroke-miterlimit:10;stroke-width: 1.5 } 
	</style>
	<path id="Layer" fill-rule="evenodd" class="s0" d="m13 8.3v2.9h2.6c0.2 0 0.3 0.2 0.3 0.4l-0.4 1.9c0 0.1-0.2 0.2-0.3 0.2h-2.2v7.3h1c5 0 7-2 7-7v-6c0-5-2-7-7-7h-6c-5 0-7 2-7 7v6c0 5 2 7 7 7h2v-7.2h-1.7q-0.3 0-0.3-0.3v-1.9q0-0.3 0.3-0.3h1.7v-3.3c0-1.7 1.3-3 3-3h2.7q0.3 0 0.3 0.3v2.4q0 0.3-0.3 0.3h-2.4q-0.3 0-0.3 0.3z"/>
</svg>

<svg xmlns="http://www.w3.org/2000/svg" width="22" height="22" version="1.2"><path d="M13 8.3v2.9h2.6c.2 0 .3.2.3.4l-.4 1.9c0 .1-.2.2-.3.2H13V21h1c5 0 7-2 7-7V8c0-5-2-7-7-7H8C3 1 1 3 1 8v6c0 5 2 7 7 7h2v-7.2H8.3q-.3 0-.3-.3v-1.9q0-.3.3-.3H10V8c0-1.7 1.3-3 3-3h2.7q.3 0 .3.3v2.4q0 .3-.3.3h-2.4q-.3 0-.3.3z" style="fill:none;stroke:#17191c;stroke-linecap:round;stroke-miterlimit:10;stroke-width:1.5"/></svg>
